X: 1
M: 4/4
Q: 1/4=200
%%score (Contrapunctus) (CantusFirmus)
L: 1/8
V:CantusFirmus name="Cantus Firmus"
V:Contrapunctus name=Contrapunctus
K: DDor
[V:CantusFirmus] D8 |E8 |G8 |F8 |G8 |E8 |F8 |E8 |D8 |F8 |E8 |D8 |
[V:Contrapunctus] A2 B2 d4 |c4 B4 |B8 |c4 d4 |B8 |c8 |c8 |G8 |A8 |A4 d2 c2 |^c8 |d8 |
% Command-line options:
% --pop-size=10        --random-seed=1      --tune-length=12
% --use-de             --verbose            --verbose
%
% Eval: 1.8
% Contrapunctus bar: 8 note: 1 CantusFirmus bar: 8 note: 1:
%     Generally it's better that voices move in opposite direction (or
%     one stays the same if allowed)
%     (B: 0 U: 0.1)
%#    0: [4],[6],[5],[6],[4],[5],[4],[3],[5],[1],[4],[1],[5],[0],[2],[7]
%#   16: [0],[0],[6],[7],[2],[6],[0],[7],[7],[2],[5],[0],[0],[0],[0],[3]
%#   32: [5],[1],[0],[1],[1],[7],[0],[1],[7],[7],[2],[6],[0],[0],[0],[2]
%#   48: [7],[7],[0],[7],[0],[3],[5],[0],[5],[7],[2],[0],[7],[0],[7],[7]
%#   64: [3],[6],[1],[7],[7],[1],[1],[7],[1],[1],[5],[3],[6],[0],[7],[7]
%#   80: [1],[0],[4],[0],[0],[0],[3],[3],[1],[7],[0],[2],[6],[0],[0],[5]
%#   96: [2],[3],[4],[1],[7],[3],[2],[5],[0],[1],[2],[0],[2],[4],[1],[0]
%#  112: [3],[1],[7],[6],[1],[6],[3]
